X: 36082
T: Scatter The Mud
R: jig
M: 6/8
K: Adorian
|:eAA BAG|EAA ABd|eAA BAB|dBG GBd|
eAA BAG|EAA AGE|GAB dge|dBA ABd:|
eaa g2e|dBG GBd|eaa g2e|dBd g3|
aba g2e|dBG AGE|GAB dge|dBA ABd|
eaa g2e|dBG GBd|eaa g2a|bag a2e|
aba g2e|dBG AGE|GAB dge|dBA ABd||

